Origami/64x64/apps/0ad.svg

<svg width="64" height="64" version="1.1" viewBox="0 0 64 64" xmlns="http://www.w3.org/2000/svg">
 <path d="M 4.043,31.828 A 28,28 0 0 0 4,33 28,28 0 0 0 32,61 28,28 0 0 0 60,33 28,28 0 0 0 59.958,32.172 28,28 0 0 1 32,59 28,28 0 0 1 4.044,31.828 Z" style="opacity:.2"/>
 <path d="M 32,4 A 28,28 0 0 0 4,32 28,28 0 0 0 32,60 28,28 0 0 0 60,32 28,28 0 0 0 32,4 Z" style="fill:#886c38"/>
 <path d="M 31.998047 4 A 28 28 0 0 0 4 32 A 28 28 0 0 0 4.0214844 32.40625 A 28 28 0 0 1 31.998047 5 L 32 5 A 28 28 0 0 1 59.976562 32.585938 A 28 28 0 0 0 59.998047 32 A 28 28 0 0 0 32 4 L 31.998047 4 z" style="fill:#ffffff;opacity:.2"/>
 <path d="m34 11.10118v19.8984h19.8906a22 22 0 0 0 -19.89 -19.8988zm-4 0.0078a22 22 0 0 0 -19.8984 19.891h19.8984v-19.8906zm-19.8906 23.892a22 22 0 0 0 19.8906 19.89802v-19.8984h-19.8906zm23.89 0v19.8906a22 22 0 0 0 19.8984 -19.8906h-19.8984z" style="opacity:.2"/>
 <path d="m34 10.1016v19.8984h19.89a22 22 0 0 0 -19.89 -19.8984zm-4 0.0078a22 22 0 0 0 -19.8984 19.8906h19.8984v-19.8906zm-19.8906 23.89a22 22 0 0 0 19.8906 19.898v-19.898h-19.8906zm23.89 0v19.89a22 22 0 0 0 19.898 -19.89h-19.898z" style="fill:#ffffff"/>
</svg>

<svg xmlns="http://www.w3.org/2000/svg" width="64" height="64" version="1.1" viewBox="0 0 64 64">
 <path style="opacity:0.2" d="M 4.043,31.828 A 28,28 0 0 0 4,33 28,28 0 0 0 32,61 28,28 0 0 0 60,33 28,28 0 0 0 59.958,32.172 28,28 0 0 1 32,59 28,28 0 0 1 4.044,31.828 Z"/>
 <path style="fill:#886c38" d="M 32,4 A 28,28 0 0 0 4,32 28,28 0 0 0 32,60 28,28 0 0 0 60,32 28,28 0 0 0 32,4 Z"/>
 <path style="opacity:0.2;fill:#ffffff" d="M 31.998047 4 A 28 28 0 0 0 4 32 A 28 28 0 0 0 4.0214844 32.40625 A 28 28 0 0 1 31.998047 5 L 32 5 A 28 28 0 0 1 59.976562 32.585938 A 28 28 0 0 0 59.998047 32 A 28 28 0 0 0 32 4 L 31.998047 4 z"/>
 <path style="opacity:0.2" d="m 34,11.10118 0,19.8984 19.8906,0 a 22,22 0 0 0 -19.89,-19.8988 z m -4,0.0078 a 22,22 0 0 0 -19.8984,19.891 l 19.8984,0 0,-19.8906 z m -19.8906,23.892 A 22,22 0 0 0 30,54.899 l 0,-19.8984 -19.8906,0 z m 23.89,0 0,19.8906 a 22,22 0 0 0 19.8984,-19.8906 l -19.8984,0 z"/>
 <path style="fill:#ffffff" d="M 34,10.1016 34,30 53.89,30 A 22,22 0 0 0 34,10.1016 Z m -4,0.0078 A 22,22 0 0 0 10.1016,30 L 30,30 30,10.1094 Z m -19.8906,23.89 A 22,22 0 0 0 30,53.8974 l 0,-19.898 -19.8906,0 z m 23.89,0 0,19.89 a 22,22 0 0 0 19.898,-19.89 l -19.898,0 z"/>
</svg>
